X:11
T:No.31 The Sportin' Belles
C:reel
M:4/4
L:1/8
K:C
ADDB cBcG|ADDG ECEG|ADDG EGcG|
(3ABc GE DcBd|ADDB cBcG|ADDG ECEG|
ADDc BGBd|[1cAGE DcBc:|[2cAGE FEDB||
c2gc acgc|c2gc BAGB|c2gc acgc|
BcGF ECEG|c2gc acgc|c2gc BAGE|
FGAB cBcG|[1(3ABc GE FEDB:|[2(3ABc GE DcBd||

